images/unlike-icon.svg

<svg width="16" height="16" viewBox="0 0 16 16" fill="none" xmlns="http://www.w3.org/2000/svg">
<path d="M2.66675 8.09556L2.66675 3.4289M5.00008 8.37063V4.00033C5.00008 3.26395 5.59704 2.66699 6.33341 2.66699H11.5936C12.2201 2.66699 12.7622 3.10328 12.8961 3.7154L13.8231 7.9531C13.914 8.36886 13.5974 8.76223 13.1718 8.76223H10.6667C9.93037 8.76223 9.33341 9.35918 9.33341 10.0956V11.0174C9.33341 11.7077 9.05917 12.3698 8.57101 12.858C8.2775 13.1515 7.78793 13.0989 7.56346 12.7497L5.21184 9.09164C5.07359 8.87658 5.00008 8.6263 5.00008 8.37063Z" stroke="#6D9985" stroke-width="1.5" stroke-linecap="round"/>
</svg>

<svg width="16" height="16" fill="none" xmlns="http://www.w3.org/2000/svg"><path d="M2.667 8.096V3.429M5 8.37V4c0-.737.597-1.334 1.333-1.334h5.26c.627 0 1.17.436 1.303 1.048l.927 4.238a.667.667 0 01-.651.81h-2.505c-.737 0-1.334.596-1.334 1.333v.921c0 .69-.274 1.353-.762 1.841a.65.65 0 01-1.008-.108L5.212 9.092A1.333 1.333 0 015 8.37z" stroke="#6D9985" stroke-width="1.5" stroke-linecap="round"/></svg>
